src/16/actions/edit-table-cell-split.svg

<svg xmlns="http://www.w3.org/2000/svg" width="16" height="16" viewBox="0 0 16 16">
 <defs>
  <style id="current-color-scheme" type="text/css">
   .ColorScheme-Text { color:#565656; } .ColorScheme-Highlight { color:#5294e2; }
  </style>
 </defs>
 <path style="fill:currentColor" class="ColorScheme-Text" d="m1 1v14h14v-14h-14zm2 2h2v2h-2v-2zm4 0h2v1.5h-2v-1.5zm4 0h2v2h-2v-2zm-5 2.5h4v1l-1 1.5 1 1.5v1h-4v-1l1-1.5-1-1.5v-1zm-3 1.5h2v2h-2v-2zm8 0h2v2h-2v-2zm-8 4h2v2h-2v-2zm8 0h2v2h-2v-2zm-4 0.5h2v1.5h-2v-1.5z"/>
</svg>

<svg xmlns="http://www.w3.org/2000/svg" width="16" height="16"><defs><style id="current-color-scheme" type="text/css"></style></defs><path d="M1 1v14h14V1H1zm2 2h2v2H3V3zm4 0h2v1.5H7V3zm4 0h2v2h-2V3zM6 5.5h4v1L9 8l1 1.5v1H6v-1L7 8 6 6.5v-1zM3 7h2v2H3V7zm8 0h2v2h-2V7zm-8 4h2v2H3v-2zm8 0h2v2h-2v-2zm-4 .5h2V13H7v-1.5z" fill="currentColor" color="#565656"/></svg>
